X: 1
T: De Colores  [D]
O: Mexico
R: waltz
Z: 2005 John Chambers <jc:trillian.mit.edu>
M: 6/8
L: 1/8
K: D
z2 \
| "D"[A3-F3-] "A7"[A2F2][GE] | "D"[GE][F2D2] z[FD][GE] \
|    [AF][AF]>[AF] [AF][GE][FD] | [AF][AF]>[AF] [AF][GE][FD] |"A7"[AF][G2-E2-] [G2E2]z |
|"A7"[G3-E3-] [G2E2][FD] | [FD][E2C2] z[GE][AF] \
|    [BG][BG]>[BG] [BG][AF][GE] | [BG][BG]>[BG] [BG][AF][GE] | "D"[BG][A2-F2-] [A2F2]z |
| "D"[A3-F3-] "A7"[A2F2][GE] | "D"[GE][F2D2] z[FD][GE] \
|    [AF][AF][AF] [AF][GE][FD] | [AF][AF]>[AF] [AF][BG][=cA] | "G"[B3G3] z |
|: [GE][AF] | "G"[BG][BG][BG] "A7"[BG][cA]>[BG] | "D"[BG][AF]>[AF] "Bm"[AF][BG][AF] \
|["1-N"  "Em"[AF][GE][AF] "A7"[BG][AF][GE] | "D"[F3D3] z :|
|["last" "Em"[AF][GE][AF] "A7"[BG][AF][cGE] | "D"[d4F4D4] |]
